!! 00000] TT[WS
!!!OTL: Qiunyinghei
!!!ARE: Asia, China, Shanxi Zuoquan
!! Ethnic Group: Han
!! WII, 250 (2)
!!!SCT: J0776
!!!YEM: Copyright 1995, estate of Helmut Schaffrath.
**kern
*ICvox
*Ivox
*M2/4
*k[f#]
*G:
{8dd
8ee
4dd
=1
8dd
8ee
4dd
=2
8dd
8ee
8dd
8ee
=3
8dd
8ee
8a
[8a
=4
8a]
8dd
8b
8dd
=5
8ee
8gg
4dd
=6
8b
8dd
8a
8g
=7
2d}
=8
{8dd
8dd
8b
8dd
=9
8a
8g
4d
=10
8dd
8dd
8b
8dd
=11
8a
8g
4d
=12
8g
8f#
8e
8g
=13
8a
8b
4dd
=14
8cc
8b
8a
8a
=15
8b
8e
4d}
==
!!!AGN: Xiaodiao. Laodong, Xinminge
!!!ONB: ESAC (Essen Associative Code) Database: CHINA
!!!AMT: simple duple
!!!AIN: vox
!!!EED: Helmut Schaffrath
!!!EEV: 1.0
*-
!!!ONB: Tied note syntax fixed by Craig Sapp, 2004/05/03/
